X:62
T:Fiddlin' Grandpa's Reel
R:reel
C:Bruce Osborne - Dec. 2002
Z:abc by bosborne@kos.net
M:2/4
L:1/8
K:Bb
F/E/|D/B,/D/F/ B/F/B/d/|f/d/B/G/ FE/D/|C/B,/C/D/ E/D/E/F/|A/G/F/E/ DF/E/|\
D/B,/D/F/ B/F/B/d/|f/d/B/G/ FE/D/|C/B,/C/D/ E/D/E/F/|A/G/F/A/ B:|
|:D/E/|F/B/A/B/ d/B/A/B/|f/B/A/B/ FE/D/|C/B,/C/D/ E/F/A/G/|F/G/F/E/ DD/E/|\
F/B/A/B/ d/B/A/B/|f/B/A/B/ FE/D/|C/B,/C/D/ E/F/A/G/|F/A/d/c/ B:|
